X:1
T:Title
%%score { 1 | ( 2 3 ) }
L:1/8
M:3/4
K:Ab
V:1 treble nm="Grand Piano"
V:2 bass 
V:3 bass 
V:1
 z2 z2[Q:1/4=104] [CE][CA] | [Ec]3 [DB] [CA][DF] | [CE]4 z2 | [EA]2 [Ec]2 [=DB]2 | [DB]4 [CE][CA] | %5
 [Ec]3 [=EB] [FA]F | E4 z2 | A2 c2 B2 | [CA]4 [DF][FA] | [Fd]3 [DF] [CE][CA] |[M:2/4] [Ec]4 | %11
[M:1/4] Ac |[M:3/4] e3 c BA | B4 .[A,CE]2 | [Ec]3 [EB] [A,EA][B,=EG] | [B,=EG]2 F4 | %16
 E2 [=DA]2 [_DB]2 |[M:2/4] [CA]4 |] %18
V:2
 z2 z2 [A,,A,][A,,A,] | [A,,A,]3 [A,,E,] [A,,E,][A,,A,] | [A,,A,]4 z2 | [C,A,]2 [A,,A,]2 [B,,A,]2 | %4
 [E,G,]4 [A,,A,][A,,A,] | [A,,A,]3 [C,G,] [D,F,][F,A,D] | [A,C]4 z2 | [E,A,C]2 [E,A,E]2 [E,G,D]2 | %8
 [A,,A,]4 [D,A,]2 | [D,A,]3 [D,A,] [A,,A,][A,,A,] |[M:2/4] [A,,A,]4 |[M:1/4] E2 | %12
[M:3/4][K:treble] [A,CA]3 [A,E][K:bass] [G,B,E][F,B,=D] | [E,G,E]4 z A | [A,,A,]3 [B,,G,] C,C, | %15
 z2 A,4 | [E,A,C]2 [B,,F,]2 [E,G,]2 |[M:2/4] [A,,A,]4 |] %18
V:3
 x6 | x6 | x6 | x6 | x6 | x6 | x6 | x6 | x6 | x6 |[M:2/4] x4 |[M:1/4] [A,C]A, | %12
[M:3/4][K:treble] x4[K:bass] x2 | z2 z2 A,,2 | x6 | D,6 | x6 |[M:2/4] x4 |] %18

